resources/img/scalable/actions/flypie-apple-symbolic.svg

<?xml version="1.0" encoding="UTF-8" standalone="no"?>
<svg
   xmlns:dc="http://purl.org/dc/elements/1.1/"
   xmlns:cc="http://creativecommons.org/ns#"
   xmlns:rdf="http://www.w3.org/1999/02/22-rdf-syntax-ns#"
   xmlns:svg="http://www.w3.org/2000/svg"
   xmlns="http://www.w3.org/2000/svg"
   xmlns:sodipodi="http://sodipodi.sourceforge.net/DTD/sodipodi-0.dtd"
   xmlns:inkscape="http://www.inkscape.org/namespaces/inkscape"
   width="4.2333mm"
   height="4.2333mm"
   version="1.1"
   viewBox="0 0 4.2333 4.2333"
   id="svg14"
   sodipodi:docname="flypie-apple-symbolic.svg"
   inkscape:version="1.0.2 (e86c870879, 2021-01-15)">
  <defs
     id="defs18">
    <inkscape:path-effect
       effect="fillet_chamfer"
       id="path-effect981"
       is_visible="true"
       lpeversion="1"
       satellites_param="F,0,0,1,0,0.1,0,1 @ F,0,0,1,0,0.1,0,1 @ F,0,0,1,0,0.1,0,1 @ F,0,0,1,0,0.1,0,1 @ F,0,0,1,0,0.1,0,1 @ F,0,0,1,0,0.1,0,1"
       unit="px"
       method="auto"
       mode="F"
       radius="0.1"
       chamfer_steps="1"
       flexible="false"
       use_knot_distance="true"
       apply_no_radius="true"
       apply_with_radius="true"
       only_selected="false"
       hide_knots="false" />
    <inkscape:path-effect
       effect="fillet_chamfer"
       id="path-effect975"
       is_visible="true"
       lpeversion="1"
       satellites_param="F,0,0,1,0,0.1,0,1 @ F,0,0,1,0,0.1,0,1 @ F,0,0,1,0,0.1,0,1 @ F,0,0,1,0,0.1,0,1 @ F,0,0,1,0,0.1,0,1 @ F,0,0,1,0,0.1,0,1"
       unit="px"
       method="auto"
       mode="F"
       radius="0.1"
       chamfer_steps="1"
       flexible="false"
       use_knot_distance="true"
       apply_no_radius="true"
       apply_with_radius="true"
       only_selected="false"
       hide_knots="false" />
    <inkscape:perspective
       sodipodi:type="inkscape:persp3d"
       inkscape:vp_x="-5.4065435 : 7.3003591 : 1"
       inkscape:vp_y="0 : 1000 : 0"
       inkscape:vp_z="11.931435 : 7.2381679 : 1"
       inkscape:persp3d-origin="2.11665 : 1.4111 : 1"
       id="perspective929" />
  </defs>
  <sodipodi:namedview
     pagecolor="#ffffff"
     bordercolor="#666666"
     borderopacity="1"
     objecttolerance="10"
     gridtolerance="10"
     guidetolerance="10"
     inkscape:pageopacity="0"
     inkscape:pageshadow="2"
     inkscape:window-width="1920"
     inkscape:window-height="1131"
     id="namedview16"
     showgrid="false"
     inkscape:zoom="23.753322"
     inkscape:cx="14.090582"
     inkscape:cy="7.758174"
     inkscape:window-x="0"
     inkscape:window-y="32"
     inkscape:window-maximized="1"
     inkscape:current-layer="svg14"
     inkscape:document-rotation="0" />
  <metadata
     id="metadata2">
    <rdf:RDF>
      <cc:Work
         rdf:about="">
        <dc:format>image/svg+xml</dc:format>
        <dc:type
           rdf:resource="http://purl.org/dc/dcmitype/StillImage" />
        <dc:title></dc:title>
      </cc:Work>
    </rdf:RDF>
  </metadata>
  <path
     style="font-variation-settings:normal;opacity:1;vector-effect:none;fill:#2e3436;fill-opacity:1;stroke:none;stroke-width:0.264582px;stroke-linecap:butt;stroke-linejoin:miter;stroke-miterlimit:4;stroke-dasharray:none;stroke-dashoffset:0;stroke-opacity:1;stop-color:#000000;stop-opacity:1"
     d="M 1.4989999,4.191257 C 1.3842706,4.1704506 1.1364106,4.0174365 0.94672775,3.8503167 0.65823315,3.5961394 0.46780925,3.2792699 0.38005925,2.9073682 0.34465025,2.7572984 0.34171625,2.3674776 0.37494925,2.2283371 0.46023025,1.8712703 0.64777605,1.6076375 0.90716755,1.4801992 1.182202,1.3450756 1.3869914,1.2431451 1.8493409,1.4542006 c 0.1012577,0.046223 0.1885786,0.085921 0.1940454,0.088219 0.00547,0.0023 4.449e-4,-0.02819 -0.011158,-0.06775 C 2.0034453,1.3598919 2.0215073,1.380746 1.9992393,1.265074 1.9975793,1.2635469 1.9300673,1.2526083 1.8492166,1.2407682 1.4749337,1.1859581 1.1697289,1.0394905 0.97000455,0.81883621 0.88627285,0.72632947 0.77862305,0.53120806 0.74648415,0.41369142 0.72104625,0.32067783 0.69331205,0.12931037 0.69331205,0.046802 v -0.05595299 l 0.077324,0.00540671 C 1.190815,0.02563643 1.4219319,0.10561472 1.6400763,0.297148 c 0.1678066,0.14733588 0.2561175,0.27715345 0.3419819,0.50271605 0.01844,0.0484405 0.036731,0.0789277 0.040649,0.06775 0.00392,-0.0111759 0.018605,-0.0569089 0.032639,-0.10162366 C 2.1207932,0.55746998 2.3074214,0.35282102 2.5277327,0.24798997 2.6709181,0.17985821 2.8712796,0.1244602 3.0149115,0.1132904 c 0.1000544,-0.007777 0.1079371,-0.006306 0.1440432,0.0269092 0.077426,0.0712299 0.02735,0.19897038 -0.077998,0.19897038 -0.093786,0 -0.2649286,0.0432324 -0.3845727,0.0971475 C 2.249138,0.68140677 2.1763156,1.039011 2.3150251,1.5433172 c 0.00241,0.00279 0.092478,-0.035088 0.2001544,-0.084174 C 2.9884838,1.24338 3.0614655,1.344244 3.3388097,1.4802379 3.5981379,1.6073977 3.7854247,1.8707553 3.8708222,2.228339 3.9043242,2.3686228 3.9015402,2.7580934 3.8659722,2.90737 3.7796858,3.2694619 3.6085198,3.564256 3.3379742,3.8167241 3.1523086,3.9899837 2.8707908,4.1666751 2.7389672,4.1926839 2.6248266,4.2152041 2.3600906,4.171909 2.2019878,4.1048655 l -0.079098,-0.03354 -0.079098,0.03354 C 1.9494538,4.144869 1.8196369,4.1767315 1.6901113,4.1916729 1.5837557,4.2039417 1.5687609,4.2039086 1.4990034,4.1912587 Z"
     id="path1016"
     sodipodi:nodetypes="ssscssccccssscssscssccscccsscssscssss" />
</svg>

<svg xmlns="http://www.w3.org/2000/svg" width="16" height="16" viewBox="0 0 4.233 4.233"><path style="font-variation-settings:normal;opacity:1;vector-effect:none;fill:#2e3436;fill-opacity:1;stroke:none;stroke-width:.264582px;stroke-linecap:butt;stroke-linejoin:miter;stroke-miterlimit:4;stroke-dasharray:none;stroke-dashoffset:0;stroke-opacity:1;stop-color:#000;stop-opacity:1" d="M1.499 4.191c-.115-.02-.363-.174-.552-.34a1.777 1.777 0 0 1-.567-.944 2.254 2.254 0 0 1-.005-.679c.085-.357.273-.62.532-.748.275-.135.48-.237.942-.026l.194.088c.006.003 0-.028-.01-.067-.03-.115-.011-.094-.034-.21a2.619 2.619 0 0 0-.15-.024c-.374-.055-.68-.202-.879-.422A1.257 1.257 0 0 1 .746.414 1.938 1.938 0 0 1 .693.047V-.01l.078.005c.42.03.65.11.87.301.167.147.255.277.341.503.018.048.037.079.04.068a.923.923 0 0 1 .505-.62c.144-.068.344-.124.488-.135.1-.007.108-.006.144.027a.114.114 0 0 1-.078.2c-.094 0-.265.042-.385.096-.447.245-.52.603-.381 1.107.002.003.093-.035.2-.084.473-.216.546-.115.824.021.26.127.446.39.532.748.033.14.03.53-.005.68a1.76 1.76 0 0 1-.528.909c-.186.173-.467.35-.599.376-.114.022-.379-.021-.537-.088l-.08-.034-.078.034c-.095.04-.224.072-.354.087a.482.482 0 0 1-.191 0Z"/></svg>
